X: 57
T:Cumberland Reel
% Nottingham Music Database
S:Trad, arr Phil Rowe
M:6/8
K:D
A|"D"f2e d2c|"G"d2B "D"A2F|"G"GFG "A"EFG|"D"F2G A2A|
"G"B2G d2B|"D"A2F d2d|"A7"cde ABc|"D"d3 -d2:|
e|"D"f2f f2e|f2f f3|"D"f2f "G"g2f|"D"f2e "A"e2c|"D"d2d d2c|d2d d2c|
"G"d2B e2d|"A"c2B ABc|"D"d2d "A"cBA|"G"B2c "D"d3|"D"ded "A"cBA|
"G"B2c "D"d2f|"A"e2e e2e|e2e efg|"A7"a2A ABc|"D"d3 -d2||


